storage/app/icons/tabler/outline/hand-love-you.svg

<!--
tags: [heavy, metal, party, concert, rebel, hand, love, you, touch, action]
category: Gestures
version: "1.39"
unicode: "ee97"
-->
<svg
  xmlns="http://www.w3.org/2000/svg"
  width="24"
  height="24"
  viewBox="0 0 24 24"
  fill="none"
  stroke="currentColor"
  stroke-width="2"
  stroke-linecap="round"
  stroke-linejoin="round"
>
  <path d="M11 11.5v-1a1.5 1.5 0 0 1 3 0v1.5" />
  <path d="M17 12v-6.5a1.5 1.5 0 0 1 3 0v10.5a6 6 0 0 1 -6 6h-2h.208a6 6 0 0 1 -5.012 -2.7a69.74 69.74 0 0 1 -.196 -.3c-.312 -.479 -1.407 -2.388 -3.286 -5.728a1.5 1.5 0 0 1 .536 -2.022a1.867 1.867 0 0 1 2.28 .28l1.47 1.47" />
  <path d="M14 10.5a1.5 1.5 0 0 1 3 0v1.5" />
  <path d="M8 13v-8.5a1.5 1.5 0 0 1 3 0v7.5" />
</svg>

<svg xmlns="http://www.w3.org/2000/svg" width="24" height="24" fill="none" stroke="currentColor" stroke-linecap="round" stroke-linejoin="round" stroke-width="2" viewBox="0 0 24 24"><path d="M11 11.5v-1a1.5 1.5 0 0 1 3 0V12"/><path d="M17 12V5.5a1.5 1.5 0 0 1 3 0V16a6 6 0 0 1-6 6h-2 .208a6 6 0 0 1-5.012-2.7L7 19q-.468-.718-3.286-5.728a1.5 1.5 0 0 1 .536-2.022 1.87 1.87 0 0 1 2.28.28L8 13"/><path d="M14 10.5a1.5 1.5 0 0 1 3 0V12m-9 1V4.5a1.5 1.5 0 0 1 3 0V12"/></svg>
